X: 305794
M: 2/4
L: 1/16
K: C
e2e2 efde | c2c2c2 dc | Bdgf egfe | d2d2d2 Gc |\
e2e2 efde | c2c2c2 dc | Bcdc BGAB | c2e2c2 H|]
ef |\
g^fgf gbag | =fefe f2de | fefe fagf | e^ded e2G2 |\
cBcd e^ded | g^fgf g2ag | fedc BcdB | c2e2"^D.C."c2 |]


